!!!COM: Fanny (Mendelssohn) Hensel
!!!CNT: Deutsch
!!!TXO: Deutsch
!!!OTL: "Warum sind denn die Rosen so blass"
!!!LYR: Heine, Heinrich
!!!OPR: 
!!!OPS: Op. 1
!!!ONM: No. 3
!!!ENC: Emily Thomas
!!!YOR: Hensel: Ausgewa2hlte Lieder fu2r Singstimme und Klavier
!!!YOR: Breitkopf & Hartel, 1994
!!!ODT: 1837/
!!NB: Vocal melody and text encoded.
**kern	**silbe
=1-	=1
*clefG2	*
*k[]	*
*M6/8	*
*MM[Andante]	*
2.r	.
=2	=2
4r	.
8r	.
4r	.
{8a	{War-
=3	=3
4ee	-um
8ff#	sind
4ee	denn
8b	die
=4	=4
8.dd	Ro-
16cc	-sen
8b	so
4cc	blass,
8a	o
=5	=5
4cc	sprich,
8g	mein
4cc	Lieb,
8g	war-
=6	=6
4a}	-um?}
8r	.
4r	.
{8a	War-
=7	=7
4dd	-um
8ee-	sind
4dd	denn
8a	im
=8	=8
8.cc	gru2-
16b-	|
8a	-nen
4b-	Gras
8a	die
=9	=9
4g	blau-
8a	-en
8b-	Veil-
8g	-chen
8ee	so
=10	=10
4.dd	stumm?
4cc#}	|}
{8a	{War-
=11	=11
8dd	-um
8cc	|
8b-	singt
8a	denn
8g	mit
8f	so
=12	=12
8dd	kla2g-
8cc	-li-
8b-	-chem
4a	Laut
8f	die
=13	=13
4dd	Ler-
8dd	-che
8ee	in
8dd	|
8ee	der
=14	=14
[4.ff	Luft?
4ff]}	|}
{8ee	{War-
=15	=15
4dd	-um
8dd	steigt
8dd	denn
8cc	aus
8dd	dem
=16	=16
4ee	Bal-
8dd	-sam-
4cc	-kraut
8b	ver-
=17	=17
4ee	-welk-
8dd	-ter
4cc	Blu2-
8b	-ten
=18	=18
4a}	Duft?}
8r	.
4r	.
8r	.
=19	=19
4r	.
8r	.
4r	.
{8a	{War-
=20	=20
4ee	-um
8ff	scheint
4ee	denn
8b	die
=21	=21
8dd	Sonn'
8cc	auf
8b	die
4cc	Au
8a	so
=22	=22
8cc	kalt
8g	und
8g	ver-
8cc	-driess-
8g	-lich
8g#	her-
=23	=23
4a}	-ab?}
8r	.
4r	.
{8a	{War-
=24	=24
4dd	-um
8ee-	ist
4dd	denn
8a	die
=25	=25
8.cc	Er-
16b-	-de
8a	so
4b-	grau
8a	und
=26	=26
4g	o2-
8a	-de
8b-	wie
8g	|
8ee	ein
=27	=27
4.dd	Grab?
4cc#}	|}
{8a	{War-
=28	=28
8dd	-um
8cc	bin
8b-	ich
8a	selbst
8g	|
8f	so
=29	=29
8dd	krank
8cc	und
8b-	so
4a}	tru2b,}
{8f	{mein
=30	=30
4dd	lie-
8dd	-bes
8ee	Lieb-
8dd	|
8ee	-chen
=31	=31
[4.ff	sprich?
4ff]}	|}
{8ee	{O
=32	=32
4dd	sprich,
8dd	mein
8dd	herz-
8cc	-al-
8dd	-ler-
=33	=33
4ee	-lieb-
8dd	-stes
4cc}	Lieb,}
{8b	{war-
=34	=34
4ee	-um
8dd	ver-
8cc	-lie-
8cc	-ssest
8b	du
=35	=35
4a}	mich?}
8r	.
4r	.
8r	.
=36	=36
4r	.
8r	.
4r	.
{8a	{War-
=37	=37
4ee	-um,
8ff	war-
4ee	-um
8b	ver-
=38	=38
8.dd	-lie-
16cc	-ssest
8b	du
4cc}	mich?}
8r	.
==	==
*-	*-
